Numix/16/emotes/face-surprise.svg

<?xml version="1.0" encoding="UTF-8" standalone="no"?>
<svg
   xmlns:dc="http://purl.org/dc/elements/1.1/"
   xmlns:cc="http://creativecommons.org/ns#"
   xmlns:rdf="http://www.w3.org/1999/02/22-rdf-syntax-ns#"
   xmlns:svg="http://www.w3.org/2000/svg"
   xmlns="http://www.w3.org/2000/svg"
   xmlns:sodipodi="http://sodipodi.sourceforge.net/DTD/sodipodi-0.dtd"
   xmlns:inkscape="http://www.inkscape.org/namespaces/inkscape"
   width="16px"
   height="16px"
   viewBox="0 0 12 12"
   version="1.1"
   id="svg2754"
   inkscape:version="0.91 r"
   sodipodi:docname="face-surprise.svg">
  <metadata
     id="metadata2769">
    <rdf:RDF>
      <cc:Work
         rdf:about="">
        <dc:format>image/svg+xml</dc:format>
        <dc:type
           rdf:resource="http://purl.org/dc/dcmitype/StillImage" />
      </cc:Work>
    </rdf:RDF>
  </metadata>
  <defs
     id="defs2767" />
  <sodipodi:namedview
     pagecolor="#ffffff"
     bordercolor="#666666"
     borderopacity="1"
     objecttolerance="10"
     gridtolerance="10"
     guidetolerance="10"
     inkscape:pageopacity="0"
     inkscape:pageshadow="2"
     inkscape:window-width="640"
     inkscape:window-height="480"
     id="namedview2765" />
  <g
     id="surface1">
    <path
       style=" stroke:none;fill-rule:nonzero;fill:rgb(100%,85.098039%,36.078431%);fill-opacity:1;"
       d="M 11.25 6 C 11.25 8.484375 8.898438 10.5 6 10.5 C 3.101562 10.5 0.75 8.484375 0.75 6 C 0.75 3.515625 3.097656 1.5 6 1.5 C 8.902344 1.5 11.25 3.515625 11.25 6 Z M 11.25 6 "
       id="path2757" />
    <path
       style=" stroke:none;fill-rule:nonzero;fill:rgb(38.823529%,38.823529%,38.823529%);fill-opacity:1;"
       d="M 6.5625 8.0625 C 6.5625 7.542969 6.3125 7.125 6 7.125 C 5.6875 7.125 5.4375 7.542969 5.4375 8.0625 C 5.4375 8.582031 5.6875 9 6 9 C 6.3125 9 6.5625 8.582031 6.5625 8.0625 Z M 6.5625 8.0625 "
       id="path2759" />
    <path
       style=" stroke:none;fill-rule:nonzero;fill:rgb(39.607843%,39.607843%,39.607843%);fill-opacity:1;"
       d="M 4.921875 4.921875 C 4.921875 5.363281 4.566406 5.71875 4.125 5.71875 C 3.683594 5.71875 3.328125 5.363281 3.328125 4.921875 C 3.328125 4.480469 3.683594 4.125 4.125 4.125 C 4.566406 4.125 4.921875 4.480469 4.921875 4.921875 Z M 4.921875 4.921875 "
       id="path2761" />
    <path
       style=" stroke:none;fill-rule:nonzero;fill:rgb(39.607843%,39.607843%,39.607843%);fill-opacity:1;"
       d="M 8.671875 4.921875 C 8.671875 5.363281 8.316406 5.71875 7.875 5.71875 C 7.433594 5.71875 7.078125 5.363281 7.078125 4.921875 C 7.078125 4.480469 7.433594 4.125 7.875 4.125 C 8.316406 4.125 8.671875 4.480469 8.671875 4.921875 Z M 8.671875 4.921875 "
       id="path2763" />
  </g>
</svg>

<svg xmlns="http://www.w3.org/2000/svg" width="16" height="16" viewBox="0 0 12 12">
 <g>
  <path d="m 11.25 6 c 0 2.484 -2.352 4.5 -5.25 4.5 c -2.898 0 -5.25 -2.02 -5.25 -4.5 c 0 -2.484 2.348 -4.5 5.25 -4.5 c 2.902 0 5.25 2.02 5.25 4.5 m 0 0" style="fill:#ffd85b;fill-opacity:1;stroke:none;fill-rule:nonzero"/>
  <path d="m 6.563 8.06 c 0 -0.52 -0.25 -0.938 -0.563 -0.938 c -0.313 0 -0.563 0.418 -0.563 0.938 c 0 0.52 0.25 0.938 0.563 0.938 c 0.313 0 0.563 -0.418 0.563 -0.938 m 0 0" style="fill:#626262;fill-opacity:1;stroke:none;fill-rule:nonzero"/>
  <path d="m 4.922 4.922 c 0 0.441 -0.355 0.797 -0.797 0.797 c -0.441 0 -0.797 -0.355 -0.797 -0.797 c 0 -0.441 0.355 -0.797 0.797 -0.797 c 0.441 0 0.797 0.355 0.797 0.797 m 0 0" style="fill:#646464;fill-opacity:1;stroke:none;fill-rule:nonzero"/>
  <path d="m 8.672 4.922 c 0 0.441 -0.355 0.797 -0.797 0.797 c -0.441 0 -0.797 -0.355 -0.797 -0.797 c 0 -0.441 0.355 -0.797 0.797 -0.797 c 0.441 0 0.797 0.355 0.797 0.797 m 0 0" style="fill:#646464;fill-opacity:1;stroke:none;fill-rule:nonzero"/>
 </g>
</svg>
